X:32
T:Dirge of Mull, The
T:An Cr\`onan Muileach
R:Slow Air
S:Simon Fraser Collection
N:No.199
O:Scottish
M:C
L:1/8
K:C
A4 ^G2E2|c4 d2B2|c3d e4|e2d2 (d2c2)|c3d e3g|e2A2 ^G2E2|A4 ^G3B|
(c3 d/c/) (B2A2):|
|:A3B e4|A4 ^G2E2|A3 B e3g|(c3 d/c/) [G2B2] z2|A3 B e4|A4 ^G2E2|
e3 ^d e2 ^G2|A3 (3^G/A/B/ A4:|

